X: 10061
T: WHAT FAIRY LIKE MUSIC
C:
%R: waltz
B: Elias Howe "The Musician's Companion" Part 1 1842 p.6 #1
S: http://imslp.org/wiki/The_Musician's_Companion_(Howe,_Elias)
Z: 2015 John Chambers <jc:trillian.mit.edu>
M: 3/4
L: 1/8
K: G
% - - - - - - - - - - - - - - - - - - - - - - - - -
V: 1 staves=3
!p!GA |\
B2 B2 cB | BA A2 BA | G2 A2 G2 | F2 D2 GA |\
B2 B2 cB | BA A2 BA | G>B A>c F>A | G2 z2 :|
|: FG |\
A2 A2 GA | B2 B2 AB | c2 c2 Bc | d4 GA |\
B2 B2 cB | BA A2 BA | G>B A>c F>A | G2 z2 :|
% - - - - - - - - - - - - - - - - - - - - - - - - -
V: 2
B,D |\
G2 G2 AG | GF F2 GF | E4 E2 | D2 D2 B,D |\
G2 G2 AG | GF F2 GD | D2 E2 C2 | B,2 z2 :|
|: DE |\
F2 F2 EF | G2 G2 FG | A2 A2 GA | B4 B,D |\
G2 G2 AG | GF F2 GD | D2 E2 C2 | B,2 z2 :|
% - - - - - - - - - - - - - - - - - - - - - - - - -
V: 3 clef=bass middle=d
z2 |\
g2 g2 z2 | d2 d2 z2 | e2 c2 ^c2 | d2 d2 z2 |\
g2 g2 z2 | d2 d2 z2 | B2 c2 d2 | G2 z2 :|
|: z2 |\
d2 d2 z2 | g2 g2 z2 | d2 d2 c2 | d4 z2 |\
g2 g2 z2 | d2 d2 z2 | B2 c2 d2 | G2 z2 :|
% - - - - - - - - - - - - - - - - - - - - - - - - -


